!!!COM: Palestrina, Giovanni Perluigi da
!!!OPR: Missa Quando lieta sperai
!!!OTL: Gloria
**kern	**kern	**kern	**kern	**kern
*Ibass	*Ibarit	*Itenor	*Icalto	*Icant
!Bassus	!Baritone	!Tenor	!Altus	!Cantus
*clefF4	*clefF4	*clefGv2	*clefG2	*clefG2
*k[]	*k[]	*k[]	*k[]	*k[]
*A:aeo	*A:aeo	*A:aeo	*A:aeo	*A:aeo
*M4/2	*M4/2	*M4/2	*M4/2	*M4/2
=1	=1	=1	=1	=1
0r	0r	1r	0r	1.e
.	.	2.e	.	.
.	.	.	.	2e
.	.	4e	.	.
=2	=2	=2	=2	=2
0r	0r	2d	1r	2f
.	.	2c	.	2e
.	.	2d	2r	2f
.	.	2e	[2e	2g
=3	=3	=3	=3	=3
0r	0r	4A	2e]	1.a
.	.	4B	.	.
.	.	4c	2e	.
.	.	4A	.	.
.	.	2d	2f	.
.	.	2c#	2e	2a
=4	=4	=4	=4	=4
0r	0r	2d	2f	2a
.	.	2B	2g	2b
.	.	4A	[1a	2cc
.	.	4B	.	.
.	.	4c	.	[2cc
.	.	4d	.	.
=5	=5	=5	=5	=5
0r	1.E	0e	2a]	2cc]
.	.	.	4g#	4b
.	.	.	4f#	4a
.	.	.	2g#	1b
.	2E	.	2g#	.
=6	=6	=6	=6	=6
0r	2F	2c	2a	2a
.	2E	2e	2g	1cc
.	2F	1d	2a	.
.	2G	.	4g	2b
.	.	.	4f	.
=7	=7	=7	=7	=7
1r	2.A	2c	4e	0cc
.	.	.	4c	.
.	.	1A	2f	.
.	4B	.	.	.
2.A	2c	.	2.e	.
.	2A	2c	.	.
4A	.	.	4f	.
=8	=8	=8	=8	=8
2G	2B	1d	2g	0r
2F	1d	.	2a	.
2G	.	1e	2g	.
2A	2c	.	2e	.
=9	=9	=9	=9	=9
2D	2B	4d	2f	1r
.	.	4c	.	.
2F	1A	4B	2d	.
.	.	4A	.	.
2E	.	2B	2.e	2r
2E	2G#	[2e	.	2b
.	.	.	4d	.
=10	=10	=10	=10	=10
2AA	1A	4e]	2c	2cc
.	.	4d	.	.
1A	.	4c	2A	1cc
.	.	4B	.	.
.	2r	2A	1e	.
2G#	2B	2E	.	2b
=11	=11	=11	=11	=11
1A	2c	4A	[0e	2.a
.	.	4B	.	.
.	1A	4c	.	.
.	.	4d	.	4b
1E	.	2e	.	2cc
.	2G	2E	.	[2b
=12	=12	=12	=12	=12
1r	1c	2r	1e]	4b]
.	.	.	.	4a
.	.	2A	.	1a
1E	1B	2.e	1r	.
.	.	.	.	2g#
.	.	4d	.	.
=13	=13	=13	=13	=13
1.A	2r	4c	1r	1a
.	.	4B	.	.
.	2A	1c	.	.
.	[1e	.	2r	1r
2G#	.	2B	[2e	.
=14	=14	=14	=14	=14
2A	2e]	2c	2e]	0r
2F	2d	4A	1a	.
.	.	4B	.	.
1E	2e	4c	.	.
.	.	4d	.	.
.	2B	2e	2g	.
=15	=15	=15	=15	=15
0D	1d	2f	2a	0r
.	.	2d	2b-	.
.	1d	2f	2a	.
.	.	2f	[2a	.
=16	=16	=16	=16	=16
2E	2B	1e	4a]	2r
.	.	.	4g	.
2C	2c	.	2g	2e
1D	1A	1d	1f	[1a
=17	=17	=17	=17	=17
1E	2r	1B	1e	2a]
.	2E	.	.	2g
1r	2F#	[1d	2r	2a
.	2G	.	2d	2b-
=18	=18	=18	=18	=18
0r	2D	2d]	2f	2a
.	1F	2c	1f	1a
.	.	2d	.	.
.	2C	2e	2e	2g
=19	=19	=19	=19	=19
0r	2D	2d	0a	1f
.	2D	2.d	.	.
.	1A	.	.	[1e
.	.	4c	.	.
.	.	2c	.	.
=20	=20	=20	=20	=20
0E	2E	2.B	2.g	1e]
.	1B	.	.	.
.	.	4A	4f	.
.	.	1G	4e	2r
.	.	.	4d	.
.	[2c	.	4c	2e
.	.	.	4B	.
=21	=21	=21	=21	=21
1F	2c]	1r	1A	1a
.	1d	.	.	.
1G	.	1B	1d	[1g
.	[2G	.	.	.
=22	=22	=22	=22	=22
1C	2G]	1c	1e	2g]
.	2.c	.	.	2g
2.G	.	1d	[1g	1g
.	8B	.	.	.
.	8A	.	.	.
.	2B	.	.	.
4F	.	.	.	.
=23	=23	=23	=23	=23
2E	4c	2G	2g]	2r
.	4B	.	.	.
2F	4A	1c	2a	2cc
.	4G	.	.	.
1D	1F	.	2f	2dd
.	.	2B	2f	2dd
=24	=24	=24	=24	=24
0C	1G	2.c	2.e	0ee
.	.	4d	4f	.
.	2r	4e	2g	.
.	.	4f	.	.
.	2c	[2g	2cc	.
=25	=25	=25	=25	=25
1r	2d	2g]	2b	1dd
.	2d	2f	1a	.
2r	[1e	2.e	.	2b
2E	.	.	4g	2b
.	.	8d	4f	.
.	.	8c	.	.
=26	=26	=26	=26	=26
2E	1e]	4B	2g	2b
.	.	4G	.	.
2C	.	1g	2e	2cc
1D	2.d	.	1r	4b
.	.	.	.	4a
.	.	2f	.	[2a
.	4c	.	.	.
=27	=27	=27	=27	=27
1E	1B	0e	2r	2a]
.	.	.	2.e	2g#
1AA	1A	.	.	[1a
.	.	.	4e	.
.	.	.	2c	.
=28	=28	=28	=28	=28
2r	2r	0r	2.f	1a]
2.A	2.c	.	.	.
.	.	.	4f	.
.	.	.	1e	1r
4A	4c	.	.	.
2G	2B	.	.	.
=29	=29	=29	=29	=29
2F	2A	1r	2d	0r
2E	2G	.	2e	.
2.F	2.A	2r	1c	.
.	.	[2f	.	.
4E	4G	.	.	.
=30	=30	=30	=30	=30
2D	2F	4f]	1r	1r
.	.	4f	.	.
2C	2G	2e	.	.
1F	1A	2d	2r	2r
.	.	2c	[2a	[2cc
=31	=31	=31	=31	=31
1E	2r	2e	2a]	2cc]
.	2E	2e	2g	2b
1r	2F	1c	2f	2a
.	2C	.	2e	2g
=32	=32	=32	=32	=32
0r	2F	2r	2.f	2.a
.	2D	1d	.	.
.	.	.	4e	4g
.	1r	.	2d	2f
.	.	2c	2A	2e
=33	=33	=33	=33	=33
1D	1r	2B	2.d	0f
.	.	2A	.	.
.	.	.	4c	.
1D	2r	2.d	2B	.
.	[2d	.	2A	.
.	.	4c	.	.
=34	=34	=34	=34	=34
1E	2d]	2B	2G	0e
.	2c	1A	2A	.
1E	2B	.	1B	.
.	2e	2G#	.	.
=35	=35	=35	=35	=35
1F	2c	2A	1A	0r
.	2A	2c	.	.
2D	1d	2B	1r	.
2D	.	[2A	.	.
=36	=36	=36	=36	=36
1E	1B	2A]	1r	1r
.	.	2G#	.	.
2.F	1A	2A	2r	2r
.	.	[2d	[2f	[2a
4G	.	.	.	.
=37	=37	=37	=37	=37
1A	0r	2d]	2f]	2a]
.	.	2c	2e	2a
1r	.	2d	2f	1a
.	.	2f	2a	.
=38	=38	=38	=38	=38
0r	0r	2e	2g	1b
.	.	1d	1f	.
.	.	.	.	2a
.	.	2c	2e	2cc
=39	=39	=39	=39	=39
0r	1r	2.d	1f	2b
.	.	.	.	1a
.	.	4c	.	.
.	2r	1B	1d	.
.	[2d	.	.	2g#
=40	=40	=40	=40	=40
2r	2d]	2.A	[0e	1a
1A	2.c	.	.	.
.	.	8G	.	.
.	.	8F	.	.
.	.	1E	.	1r
.	8B	.	.	.
.	8A	.	.	.
2G	2B	.	.	.
=41	=41	=41	=41	=41
2A	2c	2r	1e]	1a
2c	2A	2e	.	.
2B	2r	2d	1r	2g
[2A	[2c	[2e	.	2a
=42	=42	=42	=42	=42
2A]	4c]	2e]	0r	2cc
.	4A	.	.	.
2G	1d	2g	.	2b
2.A	.	2f	.	4a
.	.	.	.	4b
.	2c	[2e	.	[2cc
4G	.	.	.	.
=43	=43	=43	=43	=43
1F	1A	2e]	0r	2cc]
.	.	2d	.	4b
.	.	.	.	4a
1E	1B	[1e	.	4g
.	.	.	.	4f
.	.	.	.	4e
.	.	.	.	4d
=44	=44	=44	=44	=44
2r	1.A	2e]	2r	2c
1D	.	2A	1f	2d
.	.	1r	.	[1a
2C	2A	.	2e	.
=45	=45	=45	=45	=45
2D	1A	0r	2f	1a]
2F	.	.	2a	.
2E	1B	.	2g	1r
[2D	.	.	[2f	.
=46	=46	=46	=46	=46
2D]	1A	0r	2f]	1r
2C	.	.	2e	.
2.D	2.A	.	2f	2r
.	.	.	2f	[2a
4C	4A	.	.	.
=47	=47	=47	=47	=47
2BB	2D	2r	1d	2a]
2BB	2D	1d	.	2g#
1AA	2E	.	2r	2a
.	2A	2c	2e	2cc
=48	=48	=48	=48	=48
0r	2G	2d	2g	2b
.	2A	2f	1c	1a
.	2c	2e	.	.
.	2B	[2d	2d	2g
=49	=49	=49	=49	=49
0r	2A	2d]	1e	2.a
.	2A	2c#	.	.
.	.	.	.	4g
.	2.D	1d	2.a	[1f
.	4D	.	4a	.
=50	=50	=50	=50	=50
0r	2D	1d	2a	2f]
.	1d	.	2a	2f
.	.	[1A	[1a	[1e
.	2c	.	.	.
=51	=51	=51	=51	=51
1r	2.c	1A]	1a]	1e]
.	4B	.	.	.
[1AA	4A	[1e	[1a	[1cc
.	4G	.	.	.
.	[2A	.	.	.
=52	=52	=52	=52	=52
2AA]	2A]	1e]	2a]	2cc]
2E	2.B	.	2g	2b
[1E	.	[1e	2.g	1b
.	4A	.	.	.
.	4G	.	.	.
.	8A	.	4f	.
.	8B	.	.	.
=53	=53	=53	=53	=53
1E]	2c	1e]	4e	1g
.	.	.	4d	.
.	2B	.	1e	.
[1F	[1A	1c	.	[1a
.	.	.	4d	.
.	.	.	4c	.
=54	=54	=54	=54	=54
1F]	1A]	1A	1d	1a]
[1E	1B	2r	1e	1g
.	.	[2e	.	.
=55	=55	=55	=55	=55
1E]	2r	4e]	0r	2.b
.	.	4e	.	.
.	2.G	2e	.	.
.	.	.	.	4b
1r	.	2d	.	2b
.	4G	.	.	.
.	2D	2d	.	[2a
=56	=56	=56	=56	=56
0r	2F	4c	0r	2a]
.	.	4d	.	.
.	2E	4e	.	2g
.	.	4c	.	.
.	2D	2d	.	2f
.	2A	2c#	.	2e
=57	=57	=57	=57	=57
0r	1D	1d	2r	1f
.	.	.	2.a	.
.	2A	1e	.	1e
.	.	.	4a	.
.	[2c	.	2g	.
=58	=58	=58	=58	=58
2.A	2c]	1r	2f	0r
.	2c	.	1e	.
4A	.	.	.	.
2G	2B	2r	.	.
[2F	[2A	[2f	2c	.
=59	=59	=59	=59	=59
2F]	2A]	2f]	2d	0r
2C	2G	2e	2e	.
2D	2F	2d	2f	.
2E	2G	[2c	[2e	.
=60	=60	=60	=60	=60
1F	1.A	2c]	4e]	0r
.	.	.	8d	.
.	.	.	8c	.
.	.	4B	2d	.
.	.	4A	.	.
[1E	.	2B	[1e	.
.	2G#	[2B	.	.
=61	=61	=61	=61	=61
0E]	0G#	4B]	1e]	2r
.	.	4B	.	.
.	.	2B	.	2.b
.	.	2.e	2r	.
.	.	.	.	4b
.	.	.	[2e	2b
.	.	4d	.	.
=62	=62	=62	=62	=62
0r	0r	2c	4e]	2.ee
.	.	.	4e	.
.	.	2A	2e	.
.	.	.	.	4dd
.	.	1f	4a	2cc
.	.	.	4b	.
.	.	.	4cc	2a
.	.	.	4a	.
=63	=63	=63	=63	=63
0r	1r	1d	2b	2.dd
.	.	.	1a	.
.	.	.	.	4cc
.	2r	2.e	.	1b
.	[2E	.	4g#	.
.	.	8d	4f#	.
.	.	8c	.	.
=64	=64	=64	=64	=64
2r	4E]	2B	2g#	1e
.	4E	.	.	.
2.AA	2E	2.c	2a	.
.	[1A	.	[1e	1r
4AA	.	4A	.	.
2AA	.	2c	.	.
=65	=65	=65	=65	=65
0E	2A]	2B	1e]	2.b
.	4G	2.B	.	.
.	4F#	.	.	4b
.	1G	.	2r	2b
.	.	4B	.	.
.	.	2B	[2e	[2ee
=66	=66	=66	=66	=66
1C	1c	2.e	4e]	4ee]
.	.	.	4e	4dd
.	.	.	2e	2.cc
.	.	4d	.	.
2.F	2A	4c	2.a	.
.	.	8d	.	4b
.	.	8e	.	.
.	[2A	[2f	.	[2a
4E	.	.	4g	.
=67	=67	=67	=67	=67
1D	4A]	4f]	2.f	2a]
.	4A	4e	.	.
.	2A	4d	.	2.dd
.	.	4c	4e	.
1G	4B	4B	2d	.
.	4c	4A	.	4cc
.	4d	[2B	[2g	4b
.	4e	.	.	4a
=68	=68	=68	=68	=68
2G	2d	2B]	4g]	2b
.	.	.	4f	.
2A	4c	2.e	4e	1a
.	8B	.	4d	.
.	8A	.	.	.
1E	1B	.	1e	.
.	.	4d	.	.
.	.	2B	.	2g#
=69	=69	=69	=69	=69
0AA	0A	0c#	0e	0a
=70	=70	=70	=70	=70
0r	1d	0r	1r	0r
.	1d	.	1a	.
=71	=71	=71	=71	=71
0r	2c	0r	1a	0r
.	2A	.	.	.
.	1c	.	2g	.
.	.	.	2e	.
=72	=72	=72	=72	=72
0r	2B	0r	1.g	0r
.	4G	.	.	.
.	4A	.	.	.
.	4B	.	.	.
.	4c	.	.	.
.	[2d	.	2f	.
=73	=73	=73	=73	=73
1A	2d]	1r	1e	0r
.	4c	.	.	.
.	4B	.	.	.
1A	1c	2r	2.e	.
.	.	2e	.	.
.	.	.	4f	.
=74	=74	=74	=74	=74
2G	1.B	1e	2g	0r
2E	.	.	4G	.
.	.	.	4A	.
[1G	.	2d	4B	.
.	.	.	4c	.
.	2G	2B	[2d	.
=75	=75	=75	=75	=75
2G]	2B	2d	4d]	0r
.	.	.	4c	.
2F	1A	2d	2A	.
1E	.	1e	1B	.
.	2G#	.	.	.
=76	=76	=76	=76	=76
0AA	1A	0e	1c	2r
.	.	.	.	1a
.	[1c	.	2r	.
.	.	.	[2e	2a
=77	=77	=77	=77	=77
0r	2c]	0r	2e]	2g
.	2c	.	2e	2e
.	2B	.	2d	2.g
.	2G	.	2B	.
.	.	.	.	4f
=78	=78	=78	=78	=78
0r	2.A	1r	2.c	4e
.	.	.	.	4c
.	.	.	.	2.cc
.	4B	.	4d	.
.	2c	2r	2e	.
.	.	.	.	4b
.	2d	[2d	2f	[2a
=79	=79	=79	=79	=79
1r	1B	2d]	1d	2a]
.	.	2d	.	2g#
2r	1A	2c	1e	1a
[2A	.	2A	.	.
=80	=80	=80	=80	=80
2A]	0r	1c	2r	1a
2A	.	.	1e	.
2G	.	2B	.	2r
2E	.	4G	2e	[2b
.	.	4A	.	.
=81	=81	=81	=81	=81
2.G	0r	4B	2d	2b]
.	.	4c	.	.
.	.	2d	2B	2b
4F	.	.	.	.
2.E	.	[1e	2c	1g
.	.	.	[2B	.
4D	.	.	.	.
=82	=82	=82	=82	=82
2C	2r	2e]	4B]	1a
.	.	.	4A	.
2D	2d	2f	1A	.
1BB	1d	1d	.	1b
.	.	.	2G#	.
=83	=83	=83	=83	=83
2AA	2c	1r	4A	1e
.	.	.	4B	.
2A	2A	.	4c	.
.	.	.	4d	.
1A	1c	2r	1e	1r
.	.	2e	.	.
=84	=84	=84	=84	=84
2G	2B	1e	2r	0r
2E	4G	.	2g	.
.	4A	.	.	.
1G	4B	2d	1g	.
.	4c	.	.	.
.	[2d	2B	.	.
=85	=85	=85	=85	=85
1D	4d]	1d	2f	1a
.	4c	.	.	.
.	2.A	.	2d	.
1A	.	2c	2.e	1a
.	4B	.	.	.
.	[2c	4A	.	.
.	.	4B	4d	.
=86	=86	=86	=86	=86
1E	2c]	4c	4e	2g
.	.	4d	4f	.
.	4B	2.e	1g	2e
.	4A	.	.	.
1r	1B	.	.	1g
.	.	4d	.	.
.	.	[2d	2d	.
=87	=87	=87	=87	=87
0r	1A	2d]	2.e	1a
.	.	2c#	.	.
.	.	.	8d	.
.	.	.	8e	.
.	1r	2d	2f	1a
.	.	2e	2c	.
=88	=88	=88	=88	=88
1r	1D	1f	1d	0a
[1AA	[1A	2e	2c#	.
.	.	[2c#	[2e	.
=89	=89	=89	=89	=89
2AA]	2A]	2c#]	2e]	2r
2AA	2A	2c#	2e	1a
1AA	1A	2c#	4e	.
.	.	.	4d	.
.	.	2e	4c#	2a
.	.	.	4B	.
=90	=90	=90	=90	=90
2r	2r	2e	2c#	0a
2D	2A	1f	2d	.
2D	2A	.	1r	.
[2A	[2c	2e	.	.
=91	=91	=91	=91	=91
2A]	2c]	2f	0r	0r
2G	2B	1e	.	.
2F	2A	.	.	.
2G	2B	[2d	.	.
=92	=92	=92	=92	=92
1E	1G	2d]	1r	2r
.	.	4c	.	2e
.	.	4B	.	.
1AA	2A	2c	2r	2e
.	4r	2A	2e	[2cc
.	4A	.	.	.
=93	=93	=93	=93	=93
0r	2A	0r	2e	2cc]
.	1e	.	1g	2b
.	.	.	.	2cc
.	2d	.	2f	[2b
=94	=94	=94	=94	=94
0r	2c	1r	2e	4b]
.	.	.	.	4a
.	2d	.	2f	1a
.	1B	2r	1d	.
.	.	2B	.	4g#
.	.	.	.	4f#
=95	=95	=95	=95	=95
1r	1E	1B	1e	1g#
1A	2r	2.c#	2r	1a
.	2A	.	2e	.
.	.	4d	.	.
=96	=96	=96	=96	=96
1A	1c#	2e	1e	2r
.	.	1A	.	2a
2D	1d	.	2f#	1a
2D	.	[2d	2f#	.
=97	=97	=97	=97	=97
1G	1B	2d]	1g	2b
.	.	2d	.	2b
2C	2G	1c	2e	1cc
2C	2G	.	2e	.
=98	=98	=98	=98	=98
[0D	1d	2r	2.f	2a
.	.	2.f	.	2a
.	.	.	4e	.
.	[1A	.	4d	1dd
.	.	4e	4c	.
.	.	4d	4d	.
.	.	4c	4e	.
=99	=99	=99	=99	=99
1D]	1A]	1d	2.f	2a
.	.	.	.	1dd
.	.	.	4g	.
1AA	[1A	[1e	1a	.
.	.	.	.	2cc
=100	=100	=100	=100	=100
1.A	1A]	1e]	1a	1.cc
.	[1e	1r	1r	.
2G	.	.	.	4b
.	.	.	.	4a
=101	=101	=101	=101	=101
1G	2e]	1r	0r	1b
.	2d	.	.	.
2.F	1d	2r	.	1a
.	.	[2a	.	.
4G	.	.	.	.
=102	=102	=102	=102	=102
4A	2c	2a]	0r	1.cc
4B	.	.	.	.
2.c	1e	2g	.	.
.	.	1g	.	.
4B	.	.	.	.
2G	[2d	.	.	2b
=103	=103	=103	=103	=103
2.A	4d]	2f	1r	1a
.	4c	.	.	.
.	2c	1e	.	.
4G	.	.	.	.
1F	1A	.	[1a	1r
.	.	2d	.	.
=104	=104	=104	=104	=104
0E	0B	0e	2a]	1r
.	.	.	2g	.
.	.	.	1g	[1b
=105	=105	=105	=105	=105
0r	1.d	2r	2.f	2b]
.	.	1f	.	2a
.	.	.	4g	.
.	.	.	4a	1a
.	.	.	4b	.
.	2c	2e	[2cc	.
=106	=106	=106	=106	=106
0r	2.A	2f	4cc]	1a
.	.	.	4b	.
.	.	2e	1a	.
.	4c	.	.	.
.	1B	1d	.	1dd
.	.	.	2g#	.
=107	=107	=107	=107	=107
1r	0A	2e	0a	0cc#
.	.	1e	.	.
2r	.	.	.	.
[2A	.	2f	.	.
=108	=108	=108	=108	=108
2A]	0r	2.e	2r	0r
2G	.	.	1e	.
.	.	4d	.	.
2A	.	2c	.	.
2D	.	2d	2f	.
=109	=109	=109	=109	=109
2.A	0r	2.c	2e	0r
.	.	.	2e	.
4G	.	4B	.	.
2F	.	2A	2d	.
2E	.	2G	2e	.
=110	=110	=110	=110	=110
1F	0r	1A	2c	2r
.	.	.	2d	1a
1E	.	1B	1e	.
.	.	.	.	2g
=111	=111	=111	=111	=111
0r	1.d	0r	1.f	2a
.	.	.	.	2d
.	.	.	.	2.a
.	2c#	.	2e	.
.	.	.	.	4g
=112	=112	=112	=112	=112
1r	2d	0r	2d	2f
.	2A	.	2c	2e
1D	2.d	.	2B	1f
.	.	.	2A	.
.	4c	.	.	.
=113	=113	=113	=113	=113
1E	2B	1r	2G	0e
.	1A	.	2c	.
1E	.	2r	1B	.
.	2G#	[2e	.	.
=114	=114	=114	=114	=114
1F	1A	4e]	1A	2r
.	.	8d	.	.
.	.	8c	.	.
.	.	2d	.	2.a
1E	1B	2.e	1r	.
.	.	.	.	8g#
.	.	.	.	8f#
.	.	.	.	2g#
.	.	4d	.	.
=115	=115	=115	=115	=115
2r	1A	4c	0r	1a
.	.	4B	.	.
2.A	.	2.c	.	.
.	2r	.	.	1e
8G#	.	8B	.	.
8F#	.	8A	.	.
2G#	[2e	2B	.	.
=116	=116	=116	=116	=116
2A	4e]	2c	0r	0r
.	8d	.	.	.
.	8c	.	.	.
2D	2d	2A	.	.
2.A	2e	2.c	.	.
.	2A	.	.	.
4G	.	4B	.	.
=117	=117	=117	=117	=117
2F	1.c	2A	2r	1r
2E	.	2G	2.e	.
1F	.	1A	.	2r
.	.	.	8d	.
.	.	.	8c	.
.	2A	.	2d	[2a
=118	=118	=118	=118	=118
1E	1B	1r	2e	4a]
.	.	.	.	8g#
.	.	.	.	8f#
.	.	.	2e	2g#
1r	2.d	2r	[1f	2a
.	.	[2d	.	2d
.	8c	.	.	.
.	8B	.	.	.
=119	=119	=119	=119	=119
0r	1A	4d]	2f]	2.a
.	.	8c#	.	.
.	.	8B	.	.
.	.	2c#	2e	.
.	.	.	.	4g
.	1r	2d	1a	2f
.	.	2A	.	2e
=120	=120	=120	=120	=120
0r	1r	2.d	2r	2.f
.	.	.	1a	.
.	.	4c	.	4e
.	2r	2B	.	4d
.	.	.	.	4c
.	[2d	2B	2g#	2d
=121	=121	=121	=121	=121
0r	2d]	1A	2a	2e
.	2c#	.	2e	1a
.	2d	1r	2f	.
.	2G	.	2g	2b-
=122	=122	=122	=122	=122
0r	2.d	2r	1f	1a
.	.	1d	.	.
.	4c	.	.	.
.	2B-	.	2d	2g
.	2A	2c#	[2a	[2f
=123	=123	=123	=123	=123
0r	1B-	2d	2a]	4f]
.	.	.	.	4d
.	.	2d	2g	1dd
.	[1A	2e	[1a	.
.	.	2e	.	2cc#
=124	=124	=124	=124	=124
0D	1A]	0f#	1a]	2dd
.	.	.	.	1a
.	1d	.	1r	.
.	.	.	.	[2b
=125	=125	=125	=125	=125
1E	1G	1g	1e	2b]
.	.	.	.	2.cc
1F	1A	2f	1c	.
.	.	.	.	4b
.	.	[2f	.	4a
.	.	.	.	4g
=126	=126	=126	=126	=126
1D	1.d	4f]	2d	4f
.	.	4e	.	4g
.	.	4d	2f	4a
.	.	4c	.	4f
[1E	.	2B	1e	2g
.	2c	2A	.	[2a
=127	=127	=127	=127	=127
1E]	1B	2B	2.e	2a]
.	.	1e	.	2g#
.	.	.	4d	.
[1AA	[1A	.	2c	1a
.	.	[2d	2f	.
=128	=128	=128	=128	=128
1AA]	1A]	2d]	1e	2r
.	.	2c#	.	2e
1D	1r	2d	1d	2.f
.	.	[2A	.	.
.	.	.	.	4g
=129	=129	=129	=129	=129
2.F	0r	2A]	2r	2.a
.	.	2.c	2f	.
4G	.	.	.	4b
2.A	.	.	2e	2.cc
.	.	4d	.	.
.	.	[2e	2c	.
4B	.	.	.	8b
.	.	.	.	8a
=130	=130	=130	=130	=130
2.c	0r	2e]	2.e	2g
.	.	2c	.	2a
8B-	.	.	4f	.
8A	.	.	.	.
2G	.	4d	2g	2b-
.	.	4e	.	.
2A	.	[2f	2c	[2a
=131	=131	=131	=131	=131
2.B-	0r	4f]	1d	2a]
.	.	4e	.	.
.	.	1d	.	2g
4B-	.	.	.	.
1A	.	.	1e	2a
.	.	2c#	.	2e
=132	=132	=132	=132	=132
0r	1D	1d	2r	2.f
.	.	.	1A	.
.	.	.	.	4g
.	2.F	2r	.	[1a
.	.	2A	[2c	.
.	4G	.	.	.
=133	=133	=133	=133	=133
0r	1A	2.c	4c]	2a]
.	.	.	4d	.
.	.	.	1e	2.cc
.	.	4d	.	.
.	2.c	1e	.	.
.	.	.	.	4b
.	.	.	2c	4a
.	8B	.	.	4g
.	8A	.	.	.
=134	=134	=134	=134	=134
0r	2.G	2.g	2d	2.b
.	.	.	2.g	.
.	4A	8f	.	4cc
.	.	8e	.	.
.	2B	2d	.	2dd
.	.	.	4f	.
.	2c	2e	[2e	2cc
=135	=135	=135	=135	=135
0r	1d	1f	2e]	1a
.	.	.	1d	.
.	[1A	[1e	.	2.a
.	.	.	4c	.
.	.	.	4B	4g
=136	=136	=136	=136	=136
1r	0A]	1e]	2c	4a
.	.	.	.	4b
.	.	.	2A	2.cc
1AA	.	2A	2.c	.
.	.	.	.	4b
.	.	[2c	.	2a
.	.	.	4d	.
=137	=137	=137	=137	=137
2.C	2r	4c]	2e	1g
.	.	4d	.	.
.	2E	1e	2.g	.
4D	.	.	.	.
1E	2.G	.	.	1r
.	.	.	4f	.
.	.	[2g	2e	.
.	4A	.	.	.
=138	=138	=138	=138	=138
2.G	1B	2g]	2d	2r
.	.	2G	2g	2d
8F	.	.	.	.
8E	.	.	.	.
2D	2d	1r	2f	2f
2E	2c	.	[2e	2g
=139	=139	=139	=139	=139
0F	1A	2r	2e]	1a
.	.	2A	2d	.
.	1A	2c	2c	1a
.	.	2d	4B	.
.	.	.	4A	.
=140	=140	=140	=140	=140
2E	2r	1e	2B	1g
1C	1e	.	2.c	.
.	.	2g	.	1cc
.	.	.	4d	.
2C	2e	2g	2e	.
=141	=141	=141	=141	=141
2D	4d	4f	1f	2a
.	4c	4e	.	.
2D	4B	4d	.	1b
.	4A	4c	.	.
[1E	2G#	2B	2e	.
.	2A	[2e	2c	[2a
=142	=142	=142	=142	=142
1E]	1B	2e]	2B	2a]
.	.	2B	2.e	2g#
1AA	[1A	2c	.	[1a
.	.	.	4d	.
.	.	[2e	4c	.
.	.	.	4B	.
=143	=143	=143	=143	=143
2r	0A]	4e]	2c	0a]
.	.	4d	.	.
1AA	.	4c	1e	.
.	.	4B	.	.
.	.	2c#	.	.
2AA	.	2c#	2e	.
=144	=144	=144	=144	=144
1.D	[0A	2.d	2.f	[0a
.	.	4e	4e	.
.	.	2f	2d	.
2C#	.	2e	2e	.
=145	=145	=145	=145	=145
1D	0A]	1d	1f	0a]
1AA	.	1c#	1e	.
==	==	==	==	==
*-	*-	*-	*-	*-
!!!CDT: 1525/^1526/-1594/2/2
!!!OCY: Italia
!!!AGN: Mass (Parody)
!!!AST: renaissance, vocal
!!!ASW: Madrigal 1548 (anon (Rore, Morales))
!!!PWK: Masses, Book 11
!!!RNB: Cadence finals: G,E
!!!YOR: Le Opere Complete, v. 28, p. 73
!!!YOO: Rome, Italy: Fratelli Scalera
!!!END: 1992//
!!!EED: John Miller
!!!YEC: Copyright 2000, John Miller
!!!YEN: United States of America
!!!YEM: Rights to all derivative electronic formats reserved.
!!!YEM: Refer to licensing agreement for further details.
!!!YEM: This file must be accompanied by the licensing agreement.
!!!YEM: A copy of the licensing agreement may be found at http://www.music-cog.ohio-state.edu/HumdrumDatabases/Palestrina/license.txt
!!!EMD: converted to Humdrum by Bret Aarden
